X:3441
L:1/8
M:4/4
K:G
 DG | B3 B B2 cA | e2 d^c d2 B/c/d | c2 A/B/c B2 G/A/B | A/B/A G/F/E DE F/G/A | B2 BB B2 cA | 
 e2 d^c d2 b/a/g | f2 a/g/f e2 g/f/e | d2 dd d2 DG | B2 B>B B2 cA | e2 d^c d2 B/c/d | 
 c2 A/B/c B2 G/A/B | A/B/A G/F/E DE F/G/A | B2 BB B2 cA | e2 d^c d2 b/a/g | f2 a/g/f e2 g/f/e | 
 d2 dd d2 || Bd | e2 e>e ef ga | b2 b>b ba gf | ge ee ef ga | b2 b>b bd- dd | dc- cc ac cc | 
 cB BB eA Bc | dG AB cD EF | G2 G>A G2 Bd | e2 e>e ef ga | b2 b>b ba gf | ge- ee ef ga | 
 b2 b>b bd- dd | dc cc ac cc | cB BB eA Bc | dG AB cD EF | G2 G>A G2 ||

